X:120
M:4/4
L:1/4
K:C
D2 A A | G d c B | A2 c2 | A c (B/A/ B) | A z/ A/ c3/2 B/ | c A/ (G F/) E | D2 A3/2 G/ | (F D) C2 | (A3/2 G/) F c- | c/_B/ A G/F/ G | A z/ !sintro!G/ F D | C F (E/D/ E) | D4 !eintro!|]
